svg/24/facecam.svg

<svg width="24" height="24" viewBox="0 0 24 24" fill="currentColor" xmlns="http://www.w3.org/2000/svg"><path fill-rule="evenodd" clip-rule="evenodd" d="M12 16C14.2091 16 16 14.2091 16 12C16 9.79086 14.2091 8 12 8C9.79086 8 8 9.79086 8 12C8 14.2091 9.79086 16 12 16ZM12 14.5C13.3807 14.5 14.5 13.3807 14.5 12C14.5 10.6193 13.3807 9.5 12 9.5C10.6193 9.5 9.5 10.6193 9.5 12C9.5 13.3807 10.6193 14.5 12 14.5Z"/><path fill-rule="evenodd" clip-rule="evenodd" d="M3.96125 19C3.35368 19 2.77878 18.7231 2.48487 18.1913C1.89229 17.1192 1 15.0057 1 12C1 8.99427 1.89229 6.88083 2.48487 5.80867C2.77877 5.27692 3.35368 5 3.96125 5H20.0387C20.6463 5 21.2212 5.27691 21.5153 5.80859C22.1078 6.88018 23 8.99157 23 11.9912V12.0088C23 15.0084 22.1078 17.1198 21.5153 18.1914C21.2212 18.7231 20.6463 19 20.0388 19L3.96125 19ZM20.0388 17.5C20.1182 17.5 20.1699 17.4815 20.193 17.4693C20.1987 17.4662 20.2024 17.4638 20.2043 17.4623C20.7021 16.5614 21.5 14.6994 21.5 12.0088V11.9912C21.5 9.30061 20.7021 7.43863 20.2043 6.53765C20.2024 6.53618 20.1987 6.53377 20.193 6.53074C20.1699 6.51852 20.1182 6.5 20.0387 6.5L3.96125 6.5C3.88183 6.5 3.83012 6.51852 3.80708 6.53071C3.80137 6.53373 3.7979 6.53598 3.79597 6.5374C3.34592 7.35253 2.64978 8.95544 2.5209 11.25L5.25 11.25C5.66421 11.25 6 11.5858 6 12C6 12.4142 5.66421 12.75 5.25 12.75L2.5209 12.75C2.64978 15.0446 3.34592 16.6475 3.79597 17.4626C3.7979 17.464 3.80137 17.4663 3.80708 17.4693C3.83012 17.4815 3.88183 17.5 3.96125 17.5L20.0388 17.5ZM3.79392 6.53915L3.79504 6.53811L3.79392 6.53915Z"/></svg>

<svg xmlns="http://www.w3.org/2000/svg" width="24" height="24" fill="currentColor" viewBox="0 0 24 24">
  <path fill-rule="evenodd" d="M12 16a4 4 0 1 0 0-8 4 4 0 0 0 0 8Zm0-1.5a2.5 2.5 0 1 0 0-5 2.5 2.5 0 0 0 0 5Z" clip-rule="evenodd"/>
  <path fill-rule="evenodd" d="M3.961 19c-.607 0-1.182-.277-1.476-.809C1.892 17.12 1 15.006 1 12s.892-5.12 1.485-6.191C2.779 5.277 3.354 5 3.96 5h16.08c.607 0 1.182.277 1.476.809C22.108 6.88 23 8.992 23 11.99v.018c0 3-.892 5.11-1.485 6.182-.294.532-.869.809-1.476.809H3.96Zm16.078-1.5a.341.341 0 0 0 .165-.038c.498-.9 1.296-2.763 1.296-5.453v-.018c0-2.69-.798-4.552-1.296-5.453a.34.34 0 0 0-.166-.038H3.962a.34.34 0 0 0-.165.037c-.45.816-1.146 2.418-1.275 4.713H5.25a.75.75 0 0 1 0 1.5H2.52c.13 2.295.826 3.898 1.276 4.713a.34.34 0 0 0 .165.037H20.04Zm-16.245-.04Zm0-10.92.001-.002-.001.001Z" clip-rule="evenodd"/>
</svg>
